!!!COM: Robert Schumann
!!!CNT: Deutsch
!!!TXO: Deutsch
!!!OTL: Freisinn
!!!LYR: Mosen
!!!OPR: Der Nussbaum
!!!OPS: Op. 25
!!!ONM: No. 3
!!!ENC: Ben Fuhrman
!!!YOR: Schumann Lieder - Max Friedlaender, ed.,
!!!YOR: New York: C. F. Peters, Vol. 1
!!!ODT: 1840/
!!NB: Vocal melody and text only encoded.
!!NB: First instance of melodic material only encoded.
**kern	**silbe
*clefG2	*
*k[b-]	*
*M6/8	*
!!created: 5/10/06 10:05
!!proofed and posted: 5/10/06 10:09
!!edit time: 45 minutes
=2	=2
4r	.
8r	.
4r	.
{8a	{Es
=3	=3
8.a	gru2-
16a	-net
8a	ein
4a	Nuss-
8a	-baum
=4	=4
4a	vor
8dd	dem
4.cc}	Haus,}
!! rest to measure 7
=7	=7
{4g	{duf-
8g	-tig,
(8.g	luf-
16a)	|
8bn	-tig
=8	=8
4.cc	brei-
4g	-tet
8g	er
=9	|
8.a	bla2tt'-
16a	-rig
8a	die
4ee	Bla2tt-
8dd	-ter
=10	=10
4.cc}	aus.}
4r	.
8r	.
!! rest to measure 12
=12	=12
4r	.
8r	.
4r	.
{8a	{Viel
=13	=13
8.a	lieb-
16a	-li-
8a	-che
4a	Blu2-
8a	-ten
=14	=14
4a	ste-
8dd	-hen
4.cc}	dran:}
!! rest to measure 17
=17	=17
{4g	{lin-
8g	-de
(8.g	Win-
16a)	|
8bn	de
=18	=18
4.cc	kom-
4g	-men,
8g	sie
=19	=19
4a	herz-
8a	-lich
4ee	zu
8g	um-
=20	=20
4.cc}	-fahn}
4r	.
8r	.
!! rest to measure 22
=22	=22
4r	.
8r	.
4r	.
{8a	{Es
=23	=23
8.a	flu2-
16a	-stern
8a	je
4a	zwei
8a	zu
=24	=24
4a	zwei
8dd	ge-
4.cc}	-paart,}
!! rest to measure 27
=27	=27
{4g	{nei-
8g	-gend,
(8.g	beu-
16a)	|
8bn	gend
=28	=28
4.cc	zier-
4g	-lich
8g	zum
=29	=29
8.a	Kus-
16a	-se
8a	die
4ee	Ha2upt-
8dd	-chen
=30	=30
4.cc}	zart.}
4r	.
8r	.
!! rest to measure 32
=32	=32
4r	.
8r	.
4r	.
{8a	{Sie
=33	=33
8.b-	flu2-
16b-	-stern
8b-	von
4dd	ei-
8cc	-nem
=34	=34
4a	Ma2gd-
8a}	-lein,}
8r	.
8r	.
{8b-	{das
=35	=35
4g	da2ch-
8g}	-te}
8r	.
8r	.
{8a	{die
=36	=36
4f#	Na2ch-
8f#}	-te}
8r	.
8r	.
{8g	{und
=37	=37
(4.e-	ta-
4b-)	|
8a	-ge
=38	=38
2.f#	lang,
=39	=39
8.e-	wuss-
16e-	-te
8e-	ach!
8.dd	sel-
16dd	-ber
8cc	nicht
=40	=40
4.a}	was.}
4r	.
8r	.
!! rest to measure 42
=42	=42
4r	.
8r	.
4r	.
{8a	{Sie
=43	=43
4a	flu2-
8a}	-stern,}
8r	.
8r	.
{8a	{sie
=44	=44
(4a	flu2-
8dd)	|
4.cc}	-stern}
!! rest to measure 46
=46	=46
4r	.
8r	.
4r	.
{8a	{wer
=47	=47
4g	mag
8g	ver-
8.g	-steh'n
16a	so
8bn	gar
=48	=48
4cc	lei-
8g	-se
4.g}	Weis'?}
!! rest to measure 51
=51	=51
{4.dd	{flu2-
4a	-stern
8a	von
=52	=52
4.b-	Bra2ut'-
4g	-gam
8g	und
=53	=53
[4cc.	na2ch-
4cc]	|
8g	-stem
=54	=54
2.a}	Jahr,}
=55	=55
8r	.
8r	.
{8d	{vom
4a	na2ch-
8g	-sten
=56	=56
2.f}	Jahr}
=57	=57
8r	.
8r	.
{8c	{das
4c	Ma2gd-
8c	-lein
=58	=58
4.d	hor-
4c}	-chet,}
8r	.
=59	=59
8r	.
8r	.
{8c	{es
4c	rauscht
8c	im
=60	=60
4.f}	Baum;}
4r	.
8r	.
=61	=61
{4c	{seh-
8c	-nend,
4c	wa2h-
8c	-nend
=62	=62
4.d	sinkt
4.c	es
=63	=63
8.c	la2-
16c	-chelnd
8c	in
4a	Schlaf
8g	und
=64	=64
2.f}	Traum}
==	==
*-	*-
